plasma/desktoptheme/Materia-Color/icons/offline.svg

<svg xmlns="http://www.w3.org/2000/svg" width="32" height="32" version="1">
 <defs id="materia">
  <style id="current-color-scheme" type="text/css">
   .ColorScheme-Background {color:#181818; } .ColorScheme-ButtonBackground { color:#343434; } .ColorScheme-Highlight { color:#4285f4; } .ColorScheme-Text { color:#dfdfdf; } .ColorScheme-ViewBackground { color:#242424; } .ColorScheme-NegativeText { color:#f44336; } .ColorScheme-PositiveText { color:#4caf50; } .ColorScheme-NeutralText { color:#ff9800; }
  </style>
 </defs>
 <g id="22-22-offline" transform="translate(27,5)">
  <rect style="opacity:0.001" width="22" height="22" x="5" y="5"/>
  <path style="fill:currentColor" class="ColorScheme-NegativeText" d="m 22,22 v 1.414062 L 23.085938,24.5 22,25.585938 V 27 h 1.414062 L 24.5,25.914062 25.585938,27 H 27 V 25.585938 L 25.914062,24.5 27,23.414062 V 22 H 25.585938 L 24.5,23.085938 23.414062,22 Z"/>
  <path style="opacity:0.35;fill:currentColor" class="ColorScheme-Text" d="M 16,6 C 10.477144,6 6,10.477143 6,16 c 0,5.522858 4.477144,10 10,10 2.038144,0 3.932817,-0.611187 5.513672,-1.658203 L 21.292969,24.121094 A 1.0001,1.0001 0 0 1 21,23.414062 V 22 a 1.0001,1.0001 0 0 1 1,-1 h 1.414062 a 1.0001,1.0001 0 0 1 0.707032,0.292969 l 0.220703,0.220703 C 25.388813,19.932817 26,18.038144 26,16 26,10.477143 21.522857,6 16,6 Z m -0.935547,1.9941406 c 0.108806,-0.01139 0.245686,0.0065 0.355469,0 0.01301,0.05204 -0.07708,0.2387546 -0.201172,0.5097656 -0.790216,1.7262878 -0.8369,3.7475278 -0.103516,4.8281248 0.132716,0.195919 0.253907,0.38202 0.253907,0.40625 0,0.02424 -0.142858,0.05078 -0.304688,0.05078 -0.3799,10e-7 -0.740065,-0.23084 -1.474609,-0.8125 -0.326312,-0.25839 -0.749712,-0.474962 -0.914063,-0.507812 -0.258081,-0.05156 -0.326284,-0.02922 -0.660156,0.304688 -0.310635,0.310584 -0.40625,0.47934 -0.40625,0.763671 0,1.078223 1.280827,1.933145 3.660156,2.4375 3.231223,0.684839 4.026105,1.298953 4.115235,2.998047 0.111903,2.130617 -1.021331,3.736741 -3.50586,4.980469 -0.296546,0.148492 -0.484954,0.207878 -0.609375,0.255859 -0.05514,-0.0049 -0.09933,0.0049 -0.154297,0 -0.02114,-0.06587 -0.05078,-0.218243 -0.05078,-0.507812 0,-1.131634 -0.445068,-2.297837 -1.117187,-2.949219 -0.180417,-0.174873 -0.684591,-0.544709 -1.117188,-0.8125 -0.432581,-0.267776 -0.869537,-0.57822 -0.966797,-0.710937 -0.161141,-0.220233 -0.172664,-0.354867 -0.04883,-0.761719 0.22568,-0.743063 0.493412,-1.159403 1.015625,-1.628906 0.273776,-0.246141 0.548725,-0.450178 0.609375,-0.455079 0.06067,-0.0049 -0.34908,-0.129893 -0.964844,-0.255859 -0.615733,-0.12621 -1.518682,-0.390047 -1.984375,-0.558594 C 9.6386694,15.260234 8.4891023,14.612681 8.0507812,14.144531 8.0322512,14.124681 8.0161,14.11132 8,14.09375 c 0.628012,-2.501606 2.3902,-4.5510085 4.726562,-5.5390625 0.488855,-0.206768 0.99342,-0.3482222 1.525391,-0.4570313 0.264977,-0.05416 0.538903,-0.0757 0.8125,-0.1035156 z m 7.625,3.8125004 c 0.191025,0.118078 0.913249,1.680238 1.119141,2.441406 0.265819,0.982671 0.246579,2.682021 0,3.658203 -0.09385,0.37154 -0.21585,0.718459 -0.25586,0.761719 -0.04001,0.04326 -0.18674,-0.203394 -0.357422,-0.50586 C 23.02462,17.85969 22.482403,17.21637 22.029297,16.738281 20.721422,15.358208 20.514655,14.638525 21.0625,13.537109 c 0.276282,-0.555408 1.479111,-1.821708 1.626953,-1.730468 z"/>
 </g>
 <g id="offline">
  <rect style="opacity:0.001" width="32" height="32" x="0" y="0"/>
  <path style="opacity:0.35;fill:currentColor" class="ColorScheme-Text" d="M 16 2 C 8.268002 2 2 8.268001 2 16 C 2 23.732002 8.268002 30 16 30 C 18.998617 30 21.770807 29.048605 24.048828 27.443359 L 23.292969 26.6875 A 1.0001 1.0001 0 0 1 23 25.980469 L 23 24 A 1.0001 1.0001 0 0 1 24 23 L 25.980469 23 A 1.0001 1.0001 0 0 1 26.6875 23.292969 L 27.443359 24.048828 C 29.048605 21.770807 30 18.998618 30 16 C 30 8.268001 23.731999 2 16 2 z M 14.689453 4.7910156 C 14.841782 4.7750656 15.033804 4.8001156 15.1875 4.7910156 C 15.20571 4.8638756 15.079979 5.1264444 14.90625 5.5058594 C 13.799948 7.9226624 13.734981 10.75279 14.761719 12.265625 C 14.947521 12.539912 15.117187 12.800062 15.117188 12.833984 C 15.117188 12.867924 14.916015 12.904297 14.689453 12.904297 C 14.157593 12.904299 13.653361 12.581901 12.625 11.767578 C 12.168163 11.405832 11.575794 11.102631 11.345703 11.056641 C 10.984389 10.984461 10.889296 11.014949 10.421875 11.482422 C 9.986986 11.917239 9.8535156 12.154671 9.8535156 12.552734 C 9.8535156 14.062246 11.645502 15.258747 14.976562 15.964844 C 19.500274 16.923619 20.613499 17.783377 20.738281 20.162109 C 20.894945 23.144972 19.308418 25.393547 15.830078 27.134766 C 15.414913 27.342655 15.150752 27.425016 14.976562 27.492188 C 14.899363 27.485287 14.838673 27.499088 14.761719 27.492188 C 14.732119 27.399967 14.689453 27.186645 14.689453 26.78125 C 14.689453 25.196961 14.06792 23.564281 13.126953 22.652344 C 12.874369 22.407522 12.168136 21.890533 11.5625 21.515625 C 10.956886 21.14074 10.345148 20.705333 10.208984 20.519531 C 9.9833874 20.211203 9.967253 20.022717 10.140625 19.453125 C 10.456577 18.412836 10.831402 17.831133 11.5625 17.173828 C 11.945786 16.829231 12.331106 16.542016 12.416016 16.535156 C 12.500956 16.528256 11.926523 16.354087 11.064453 16.177734 C 10.202427 16.001042 8.9390794 15.63245 8.2871094 15.396484 C 7.0949184 14.965109 5.4847437 14.057755 4.8710938 13.402344 C 4.8451537 13.374554 4.8233213 13.356631 4.8007812 13.332031 C 5.6799982 9.8297839 8.1470627 6.9594469 11.417969 5.5761719 C 12.102366 5.2866959 12.807974 5.089832 13.552734 4.9375 C 13.923702 4.86168 14.306418 4.8299586 14.689453 4.7910156 z M 25.365234 10.128906 C 25.632669 10.294215 26.643392 12.48124 26.931641 13.546875 C 27.303787 14.922614 27.276851 17.301314 26.931641 18.667969 C 26.800251 19.188125 26.630233 19.673811 26.574219 19.734375 C 26.518209 19.794935 26.313172 19.450797 26.074219 19.027344 C 25.83525 18.603958 25.075755 17.702527 24.441406 17.033203 C 22.610381 15.101101 22.320908 14.094716 23.087891 12.552734 C 23.474685 11.775162 25.158255 10.00117 25.365234 10.128906 z M 25 25 L 25 25.566406 L 25.603516 26.169922 C 25.798005 25.986209 25.986209 25.798005 26.169922 25.603516 L 25.566406 25 L 25 25 z"/>
  <path style="fill:currentColor" class="ColorScheme-NegativeText" d="m 24,24 v 1.979687 L 25.520313,27.5 24,29.020314 V 31 h 1.979687 L 27.5,29.479687 29.020314,31 H 31 V 29.020314 L 29.479687,27.5 31,25.979687 V 24 H 29.020314 L 27.5,25.520313 25.979687,24 Z"/>
 </g>
</svg>

<?xml version="1.0" encoding="UTF-8"?>
<svg width="32" height="32" version="1" xmlns="http://www.w3.org/2000/svg">
 <defs id="materia">
  <style id="current-color-scheme" type="text/css">.ColorScheme-Background {color:#181818; } .ColorScheme-ButtonBackground { color:#343434; } .ColorScheme-Highlight { color:#4285f4; } .ColorScheme-Text { color:#dfdfdf; } .ColorScheme-ViewBackground { color:#242424; } .ColorScheme-NegativeText { color:#f44336; } .ColorScheme-PositiveText { color:#4caf50; } .ColorScheme-NeutralText { color:#ff9800; }</style>
 </defs>
 <g id="22-22-offline" transform="translate(27,5)">
  <rect x="5" y="5" width="22" height="22" opacity=".001"/>
  <path class="ColorScheme-NegativeText" d="m22 22v1.4141l1.0859 1.0859-1.0859 1.0859v1.4141h1.4141l1.0859-1.0859 1.0859 1.0859h1.4141v-1.4141l-1.0859-1.0859 1.0859-1.0859v-1.4141h-1.4141l-1.0859 1.0859-1.0859-1.0859z" fill="currentColor"/>
  <path class="ColorScheme-Text" d="m16 6c-5.5229 0-10 4.4771-10 10 0 5.5229 4.4771 10 10 10 2.0381 0 3.9328-0.61119 5.5137-1.6582l-0.2207-0.2207a1.0001 1.0001 0 0 1-0.29297-0.70703v-1.4141a1.0001 1.0001 0 0 1 1-1h1.4141a1.0001 1.0001 0 0 1 0.70703 0.29297l0.2207 0.2207c1.047-1.5809 1.6582-3.4755 1.6582-5.5137 0-5.5229-4.4771-10-10-10zm-0.93555 1.9941c0.10881-0.01139 0.24569 0.0065 0.35547 0 0.01301 0.05204-0.07708 0.23875-0.20117 0.50977-0.79022 1.7263-0.8369 3.7475-0.10352 4.8281 0.13272 0.19592 0.25391 0.38202 0.25391 0.40625 0 0.02424-0.14286 0.05078-0.30469 0.05078-0.3799 1e-6 -0.74006-0.23084-1.4746-0.8125-0.32631-0.25839-0.74971-0.47496-0.91406-0.50781-0.25808-0.05156-0.32628-0.02922-0.66016 0.30469-0.31064 0.31058-0.40625 0.47934-0.40625 0.76367 0 1.0782 1.2808 1.9331 3.6602 2.4375 3.2312 0.68484 4.0261 1.299 4.1152 2.998 0.1119 2.1306-1.0213 3.7367-3.5059 4.9805-0.29655 0.14849-0.48495 0.20788-0.60938 0.25586-0.05514-0.0049-0.09933 0.0049-0.1543 0-0.02114-0.06587-0.05078-0.21824-0.05078-0.50781 0-1.1316-0.44507-2.2978-1.1172-2.9492-0.18042-0.17487-0.68459-0.54471-1.1172-0.8125-0.43258-0.26778-0.86954-0.57822-0.9668-0.71094-0.16114-0.22023-0.17266-0.35487-0.04883-0.76172 0.22568-0.74306 0.49341-1.1594 1.0156-1.6289 0.27378-0.24614 0.54872-0.45018 0.60938-0.45508 0.06067-0.0049-0.34908-0.12989-0.96484-0.25586-0.61573-0.12621-1.5187-0.39005-1.9844-0.55859-0.85156-0.30812-2.0011-0.95568-2.4395-1.4238-0.01853-0.01985-0.034681-0.033211-0.050781-0.050781 0.62801-2.5016 2.3902-4.551 4.7266-5.5391 0.48886-0.20677 0.99342-0.34822 1.5254-0.45703 0.26498-0.05416 0.5389-0.0757 0.8125-0.10352zm7.625 3.8125c0.19102 0.11808 0.91325 1.6802 1.1191 2.4414 0.26582 0.98267 0.24658 2.682 0 3.6582-0.09385 0.37154-0.21585 0.71846-0.25586 0.76172s-0.18674-0.20339-0.35742-0.50586c-0.17069-0.30242-0.71291-0.94574-1.166-1.4238-1.3079-1.3801-1.5146-2.0998-0.9668-3.2012 0.27628-0.55541 1.4791-1.8217 1.627-1.7305z" fill="currentColor" opacity=".35"/>
 </g>
 <g id="offline">
  <rect width="32" height="32" opacity=".001"/>
  <path class="ColorScheme-Text" d="m16 2c-7.732 0-14 6.268-14 14 0 7.732 6.268 14 14 14 2.9986 0 5.7708-0.9514 8.0488-2.5566l-0.75586-0.75586a1.0001 1.0001 0 0 1-0.29297-0.70703v-1.9805a1.0001 1.0001 0 0 1 1-1h1.9805a1.0001 1.0001 0 0 1 0.70703 0.29297l0.75586 0.75586c1.6052-2.278 2.5566-5.0502 2.5566-8.0488 0-7.732-6.268-14-14-14zm-1.3105 2.791c0.15233-0.01595 0.34435 0.0091 0.49805 0 0.01821 0.07286-0.10752 0.33543-0.28125 0.71484-1.1063 2.4168-1.1713 5.2469-0.14453 6.7598 0.1858 0.27429 0.35547 0.53444 0.35547 0.56836 0 0.03394-0.20117 0.070313-0.42774 0.070313-0.53186 2e-6 -1.0361-0.3224-2.0645-1.1367-0.45684-0.36175-1.0492-0.66495-1.2793-0.71094-0.36131-0.07218-0.45641-0.041692-0.92383 0.42578-0.43489 0.43482-0.56836 0.67225-0.56836 1.0703 0 1.5095 1.792 2.706 5.123 3.4121 4.5237 0.95878 5.6369 1.8185 5.7617 4.1973 0.15666 2.9829-1.4299 5.2314-4.9082 6.9727-0.41516 0.20789-0.67933 0.29025-0.85352 0.35742-0.077199-0.006901-0.13789 0.0069-0.21484 0-0.0296-0.092221-0.072266-0.30554-0.072266-0.71094 0-1.5843-0.62153-3.217-1.5625-4.1289-0.25258-0.24482-0.95882-0.76181-1.5645-1.1367-0.60561-0.37488-1.2174-0.81029-1.3535-0.99609-0.2256-0.30833-0.24173-0.49681-0.068359-1.0664 0.31595-1.0403 0.69078-1.622 1.4219-2.2793 0.38329-0.3446 0.76861-0.63181 0.85352-0.63867 0.08494-0.0069-0.48949-0.18107-1.3516-0.35742-0.86203-0.17669-2.1254-0.54528-2.7773-0.78125-1.1922-0.43138-2.8024-1.3387-3.416-1.9941-0.02594-0.02779-0.047772-0.045713-0.070313-0.070313 0.87922-3.5022 3.3463-6.3726 6.6172-7.7559 0.6844-0.28948 1.39-0.48634 2.1348-0.63867 0.37097-0.07582 0.75368-0.10754 1.1367-0.14648zm10.676 5.3379c0.26744 0.16531 1.2782 2.3523 1.5664 3.418 0.37215 1.3757 0.34521 3.7544 0 5.1211-0.13139 0.52016-0.30141 1.0058-0.35742 1.0664-0.05601 0.06056-0.26105-0.28358-0.5-0.70703-0.23897-0.42339-0.99846-1.3248-1.6328-1.9941-1.831-1.9321-2.1205-2.9385-1.3535-4.4805 0.38679-0.77757 2.0704-2.5516 2.2773-2.4238zm-0.36523 14.871v0.56641l0.60352 0.60352c0.19449-0.18371 0.38269-0.37192 0.56641-0.56641l-0.60352-0.60352h-0.56641z" fill="currentColor" opacity=".35"/>
  <path class="ColorScheme-NegativeText" d="m24 24v1.9797l1.5203 1.5203-1.5203 1.5203v1.9797h1.9797l1.5203-1.5203 1.5203 1.5203h1.9797v-1.9797l-1.5203-1.5203 1.5203-1.5203v-1.9797h-1.9797l-1.5203 1.5203-1.5203-1.5203z" fill="currentColor"/>
 </g>
</svg>
